dist/svg/sauna-duo-tone.svg

<svg xmlns="http://www.w3.org/2000/svg" viewBox="0 0 24 24"><path d="M11.486 3.125c-.301.05-.702.216-1.006.418-.178.118-1.128 1.043-3.003 2.925C4.839 9.114 4.727 9.232 4.57 9.54c-.33.648-.31.33-.31 4.9v4.06l.109.32c.151.445.362.783.695 1.116s.671.544 1.116.695l.32.109h11l.32-.109a2.74 2.74 0 0 0 1.116-.695c.333-.333.544-.671.695-1.116l.109-.32v-4.04c0-3.251-.011-4.083-.054-4.26a4 4 0 0 0-.234-.6l-.18-.38-2.746-2.752C14.653 4.59 13.697 3.66 13.52 3.543a2.8 2.8 0 0 0-2.034-.418m1.074 1.592c.127.064.961.871 2.845 2.757 2.535 2.535 2.669 2.677 2.751 2.9.086.233.086.235.075 4.1l-.011 3.866-.099.195c-.13.253-.467.559-.707.641-.169.057-.72.064-5.414.064s-5.245-.007-5.414-.064c-.24-.082-.577-.388-.707-.641l-.099-.195-.011-3.866-.011-3.867.086-.233c.082-.222.219-.367 2.691-2.845 1.433-1.437 2.672-2.658 2.753-2.714.247-.172.422-.217.772-.203.232.01.369.039.5.105M9.654 8.842c-.273.135-.53.597-.689 1.238-.272 1.091-.203 2.164.217 3.365.418 1.196.498 1.548.498 2.17-.001.604-.086.994-.328 1.499-.104.215-.119.284-.099.452q.046.388.364.574a.76.76 0 0 0 .982-.189c.117-.15.336-.641.415-.933q.443-1.63-.195-3.458c-.423-1.211-.499-1.552-.498-2.215.001-.579.08-.931.33-1.459.1-.213.116-.285.096-.452a.747.747 0 0 0-1.093-.592m4 0c-.273.135-.53.597-.689 1.238-.272 1.091-.203 2.164.217 3.365.418 1.196.498 1.548.498 2.17-.001.604-.086.994-.328 1.499-.104.215-.119.284-.099.452q.046.388.364.574a.76.76 0 0 0 .982-.189c.117-.15.336-.641.415-.933q.443-1.63-.195-3.458c-.423-1.211-.499-1.552-.498-2.215.001-.579.08-.931.33-1.459.1-.213.116-.285.096-.452a.747.747 0 0 0-1.093-.592"/></svg>

<svg fill="none" xmlns="http://www.w3.org/2000/svg" viewBox="0 0 24 24"><path d="M11.486 3.125 C 11.185 3.175,10.784 3.341,10.480 3.543 C 10.302 3.661,9.352 4.586,7.477 6.468 C 4.839 9.114,4.727 9.232,4.570 9.540 C 4.240 10.188,4.260 9.870,4.260 14.440 L 4.260 18.500 4.369 18.820 C 4.520 19.265,4.731 19.603,5.064 19.936 C 5.397 20.269,5.735 20.480,6.180 20.631 L 6.500 20.740 12.000 20.740 L 17.500 20.740 17.820 20.631 C 18.265 20.480,18.603 20.269,18.936 19.936 C 19.269 19.603,19.480 19.265,19.631 18.820 L 19.740 18.500 19.740 14.460 C 19.740 11.209,19.729 10.377,19.686 10.200 C 19.657 10.079,19.551 9.809,19.452 9.600 L 19.272 9.220 16.526 6.468 C 14.653 4.590,13.697 3.660,13.520 3.543 C 12.923 3.148,12.219 3.003,11.486 3.125 M12.560 4.717 C 12.687 4.781,13.521 5.588,15.405 7.474 C 17.940 10.009,18.074 10.151,18.156 10.374 C 18.242 10.607,18.242 10.609,18.231 14.474 L 18.220 18.340 18.121 18.535 C 17.991 18.788,17.654 19.094,17.414 19.176 C 17.245 19.233,16.694 19.240,12.000 19.240 C 7.306 19.240,6.755 19.233,6.586 19.176 C 6.346 19.094,6.009 18.788,5.879 18.535 L 5.780 18.340 5.769 14.474 L 5.758 10.607 5.844 10.374 C 5.926 10.152,6.063 10.007,8.535 7.529 C 9.968 6.092,11.207 4.871,11.288 4.815 C 11.535 4.643,11.710 4.598,12.060 4.612 C 12.292 4.622,12.429 4.651,12.560 4.717 M9.654 8.842 C 9.381 8.977,9.124 9.439,8.965 10.080 C 8.693 11.171,8.762 12.244,9.182 13.445 C 9.600 14.641,9.680 14.993,9.680 15.615 C 9.679 16.219,9.594 16.609,9.352 17.114 C 9.248 17.329,9.233 17.398,9.253 17.566 C 9.284 17.825,9.405 18.016,9.617 18.140 C 9.942 18.331,10.366 18.249,10.599 17.951 C 10.716 17.801,10.935 17.310,11.014 17.018 C 11.309 15.931,11.244 14.779,10.819 13.560 C 10.396 12.349,10.320 12.008,10.321 11.345 C 10.322 10.766,10.401 10.414,10.651 9.886 C 10.751 9.673,10.767 9.601,10.747 9.434 C 10.683 8.895,10.141 8.601,9.654 8.842 M13.654 8.842 C 13.381 8.977,13.124 9.439,12.965 10.080 C 12.693 11.171,12.762 12.244,13.182 13.445 C 13.600 14.641,13.680 14.993,13.680 15.615 C 13.679 16.219,13.594 16.609,13.352 17.114 C 13.248 17.329,13.233 17.398,13.253 17.566 C 13.284 17.825,13.405 18.016,13.617 18.140 C 13.942 18.331,14.366 18.249,14.599 17.951 C 14.716 17.801,14.935 17.310,15.014 17.018 C 15.309 15.931,15.244 14.779,14.819 13.560 C 14.396 12.349,14.320 12.008,14.321 11.345 C 14.322 10.766,14.401 10.414,14.651 9.886 C 14.751 9.673,14.767 9.601,14.747 9.434 C 14.683 8.895,14.141 8.601,13.654 8.842 " stroke="none" fill-rule="evenodd"/></svg>
